!!!!SEGMENT: pl-kk--kk-i-88--004-001_golabek-jakub--missa-4ta-kyrie.krn
!!!cenid: 17xx:2590
!!!COM: Gołąbek, Jakub
!!!COM-rismID: pe30008748
!!!CDT: 1739-1789/03/30
!!!CNT: Polish
!!!OPR: Missa 4ta
!!!OTL: Kyrie
!!!OMV: 001
!!!PDT:
!!!AGN: Sacred; Mass
!!!YEC: Copyright 2022 Narodowy Instytut Fryderyka Chopina (https://polishscores.org)
!!!YEM: License CC-BY-4.0 (https://creativecommons.org/licenses/by/4.0)
!!!SMS-siglum: PL-Kk
!!!SMS-shelfmark: Kk.I.88
!!!SMS-variant:
!!!SMS-altvar:
!!!SMS-shelfwork: 004-001 M
!!!NIFC-rismSourceID: 1001164072
!!!NIFC-rismChildID: 1001164083
!!!NIFC-islandoraID:
!!!URL-pdf-islandora: https://repozytorium.nifc.pl/islandora/object/pl-kk%3A3086/datastream/PDF/view
!!!URL-scan: https://polish.musicsources.pl/pl/lokalizacje/galeria/rekopisy/6148-missa/4 @EN{Scan on Polish Music Sources Website} @PL{Skany w portalu Dziedzictwo Muzyki Polskiej w otwartym dostępie}
!!!IIIF:
!!!ONB-nifc: UWAGA: C - f. 8r-9v; A - f. 16r-17v; T - f. 24r-25v; B - f. 37r-39v; B rip - f. 37r-39v. Proszę uwzględniać B rip. Części Mszy: 1. Kyrie, 2. Christe, 3. Et in terra, 4. Sanctus, 5, Benedictus, 6. Osanna, 7. Agnus Dei.
!!!AIN: 1 alto 2 bass 1 soprn 1 tenor
!!!key: g
**kern	**text	**kern	**text	**kern	**text	**kern	**text	**kern	**text
*part5	*part5	*part4	*part4	*part3	*part3	*part2	*part2	*part1	*part1
*staff5	*staff5	*staff4	*staff4	*staff3	*staff3	*staff2	*staff2	*staff1	*staff1
*IGripn	*	*	*	*	*	*	*	*	*
*ICvox	*	*ICvox	*	*ICvox	*	*ICvox	*	*ICvox	*
*Ibass	*	*Ibass	*	*Itenor	*	*Ialto	*	*Isoprn	*
*I"Baſso	*	*I"Baſso	*	*I"Tenore	*	*I"Alto	*	*I"Canto	*
*I'B rip	*	*I'B	*	*I'T	*	*I'A	*	*I'S	*
*clefF4	*	*clefF4	*	*clefC4	*	*clefC3	*	*clefC1	*
*g:	*	*g:	*	*g:	*	*g:	*	*g:	*
*k[e-b-]	*	*k[e-b-]	*	*k[b-e-]	*	*k[b-e-]	*	*k[e-b-]	*
*M3/4	*	*M3/4	*	*M3/4	*	*M3/4	*	*M3/4	*
=1	=1	=1	=1	=1	=1	=1	=1	=1	=1
!LO:TX:a:rj:t=Lente	!	!LO:TX:a:t=Lente	!	!LO:TX:a:t=lente	!	!	!	!	!
8G\L	Ky-	8G\L	Ky-	8B-\L	Ky-	4.g\	Ky-	4.dd\	Ky-
8A\	.	8A\J	.	8c\J	.	.	.	.	.
8B-\J	.	8B-\	.	8d\L	-ri-	.	.	.	.
8A\	-ri-	8A\	-ri-	8c\J	.	8g\	-ri-	8dd\	-ri-
8G\	-e	8G\	-e	8B-\	-e	8g\	-e	16cc\LL	-e
.	.	.	.	.	.	.	.	16b-\	.
8G\	e-	8G\	e-	8B-\	e-	8g\	e-	16a\	e-
.	.	.	.	.	.	.	.	16g\JJ	.
=2	=2	=2	=2	=2	=2	=2	=2	=2	=2
4F#X\	-lei-	4F#X\	-lei-	4c\	-lei-	4a\	-lei-	4ee-\	-lei-
4G\	-son,	4G\	-son,	4B-\	-son	4g\	-son	4dd\	-son,
8r	.	8r	.	8r	.	8r	.	8r	.
8G\	e-	8G\	e-	8B-\	e-	8g\	e-	8dd\	e-
=3	=3	=3	=3	=3	=3	=3	=3	=3	=3
4G\	-lei-	4G\	-lei-	4B-\	-lei-	4g\	-lei-	4dd\	-lei-
4A\	.	4A\	.	4A\	-son	4f#X\	.	4cc\	-son
8B-\L	.	8B-\L	.	4G\	e-	4g\	.	4b-\	e-
8c\J	.	8c\J	.	.	.	.	.	.	.
=4	=4	=4	=4	=4	=4	=4	=4	=4	=4
*	*	*	*	*	*	*2\right	*	*	*
4d\	.	4d\	.	4G/	-lei-	2d\	-son	4b-\	-lei-
4D/	-son	4D/	-son.	4F#/	-son	.	.	4a\	-son
4r	.	4r	.	4r	.	4r	.	4r	.
=5	=5	=5	=5	=5	=5	=5	=5	=5	=5
8BB-/L	Ky-	8BB-/L	Ky-	8B-\L	Ky-	4.fn\	Ky-	4.dd\	Ky-
8C/	.	8C/J	.	8A\J	.	.	.	.	.
8D/J	.	8D/	.	4B-\	-ri-	.	.	.	.
8C/	-ri-	8C/	-ri-	.	.	8f\	-ri-	8dd\	-ri-
8BB-/	-e	8BB-/	-e	8B-\	-e	16e-\LL	-e	16cc\LL	-e
.	.	.	.	.	.	16d\	.	16b-\	.
8BB-/	e-	8BB-/	e-	8B-\	e-	16c\	e-	16a\	e-
.	.	.	.	.	.	16B-\JJ	.	16b-\JJ	.
!LO:LB:g=original	!	!	!	!LO:LB:g=original	!	!	!	!LO:LB:g=original	!
=6	=6	=6	=6	=6	=6	=6	=6	=6	=6
4E-\	-lei-	4E-\	-lei-	4B-\	-lei-	4g\	-lei-	4b-\	-lei-
4B-\	-son,	4B-\	-son,	4B-\	-son	4f\	-son,	4dd\	-son
8r	.	8r	.	8r	.	8r	.	8r	.
8B-\	e-	8B-\	e-	8B-\	e-	8f\	e-	8dd\	e-
!	!	!LO:LB:g=original	!	!	!	!LO:LB:g=original	!	!	!
=7	=7	=7	=7	=7	=7	=7	=7	=7	=7
4B-\	-lei-	4B-\	-lei-	4B-\	-lei-	8f\L	-lei-	8dd\L	-lei-
.	.	.	.	.	.	8d\	.	8b-\	.
4E-\	.	4E-\	.	2G/	.	8g\	.	8ee-\	.
.	.	.	.	.	.	8f\	.	8dd\	.
8E-\L	.	8E-\L	.	.	.	8e-\	.	8cc\	.
8En\J	.	8En\J	.	.	.	8d\J	.	8b-\J	.
=8	=8	=8	=8	=8	=8	=8	=8	=8	=8
*2\right	*	*2\right	*	*	*	*	*	*2\right	*
2F\	-son	2F\	-son.	2F/	-son	2c/	-son	2a\	-son
4r	.	4r	.	4r	.	4r	.	4r	.
=9	=9	=9	=9	=9	=9	=9	=9	=9	=9
4.F#X\	Ky-	4.F#X\	Ky-	4.A\	Ky-	4.e-X\	Ky-	4.cc\	Ky-
8F#\	-ri-	8F#\	-ri-	8A\	-ri-	8e-\	-ri-	8cc\	-ri-
4F#\	-e	4F#\	-e	4A\	-e	4e-\	-e	4cc\	-e
!!linebreak:original
=10	=10	=10	=10	=10	=10	=10	=10	=10	=10
8G\L	e-	8G\L	e-	8B-\L	e-	4d\	e-	8b-\L	e-
8B-\	.	8B-\J	.	8G\J	.	.	.	8dd\J	.
8A\	.	8A\L	.	8F#X/L	.	4f#X\	.	8cc\L	.
8c\	.	8c\J	.	8A/J	.	.	.	8ee-X\J	.
8B-\	.	8B-\L	.	8G/L	.	4g\	.	4dd\	.
8G\J	.	8G\J	.	8B-/J	.	.	.	.	.
=11	=11	=11	=11	=11	=11	=11	=11	=11	=11
4c\	.	4c\	.	4c\	-lei-	4a\	-lei-	4ee-\	-lei-
4d\	-lei-	4d\	.	4B-\	.	4g\	.	2dd\	.
!	!	!	!	!	!	!LO:SIC:v:s=4f#	!	!	!
4D/	.	4D/	-lei-	4A\	.	4f\	.	.	.
=12	=12	=12	=12	=12	=12	=12	=12	=12	=12
*	*	*	*	*2\right	*	*	*	*	*
2G\	-son	2G\	-son	2B-\	-son	2g\	-son	2dd\	-son
4r	.	4r	.	4r	.	4r	.	4r	.
!LO:LB:g=original	!	!	!	!LO:LB:g=original	!	!	!	!	!
=13	=13	=13	=13	=13	=13	=13	=13	=13	=13
4.F#X\	Ky-	4.F#X\	Ky-	4.A\	Ky-	4.e-X\	Ky-	4.cc\	Ky-
8F#\	-ri-	8F#\	-ri-	8A\	-ri-	8e-\	-ri-	8cc\	-ri-
4F#\	-e	4F#\	-e	4A\	-e	4e-\	-e	4cc\	-e
!	!	!	!	!	!	!LO:LB:g=original	!	!LO:LB:g=original	!
=14	=14	=14	=14	=14	=14	=14	=14	=14	=14
8G\L	e-	8G\L	e-	8B-\L	e-	4d\	e-	8b-\L	e-
8B-\	.	8B-\	.	8G\J	.	.	.	8dd\	.
8A\	.	8A\	.	8F#X/L	.	4f#X\	.	8cc\	.
8c\	.	8c\	.	8A/J	.	.	.	8ee-X\J	.
8B-\	.	8B-\	.	8G/L	.	4g\	.	4dd\	.
8G\J	.	8G\J	.	8B-/J	.	.	.	.	.
=15	=15	=15	=15	=15	=15	=15	=15	=15	=15
4c\	-lei-	4c\	.	4c\	-lei-	4a\	-lei-	4ee-\	-lei-
4d\	.	4d\	-lei-	4B-\	.	4g\	.	2dd\	.
!	!	!	!	!	!	!LO:SIC:v:s=4f#	!	!	!
4D/	.	4D/	.	4A\	.	4f\	.	.	.
=16	=16	=16	=16	=16	=16	=16	=16	=16	=16
2G\	-son	2G\	-son	2B-\	-son	2g\	-son	2dd\	-son.
4r	.	4r	.	4r	.	4r	.	4r	.
==;;	==	==;;	==	==;;	==	==;;	==	==;;	==
*-	*-	*-	*-	*-	*-	*-	*-	*-	*-
!!!system-decoration: [s1,s2,s3,s4]s5
!!!ENC: Berenika Jozajtis
!!!END: 2024-02-29
!!!EED: Andrzej Kubiczek
!!!EEV: 2025-02-16
